static/img/kroki/097af7902ddbda69c9280edf3db01439.svg

<?xml version="1.0" encoding="us-ascii" standalone="no"?><svg xmlns="http://www.w3.org/2000/svg" xmlns:xlink="http://www.w3.org/1999/xlink" contentStyleType="text/css" height="252px" preserveAspectRatio="none" style="width:324px;height:252px;" version="1.1" viewBox="0 0 324 252" width="324px" zoomAndPan="magnify"><defs/><g><!--class azure_network_flow_log--><g id="elem_azure_network_flow_log"><rect codeLine="23" fill="#3D176E" height="39.7891" id="azure_network_flow_log" rx="2.5" ry="2.5" style="stroke:#000D19;stroke-width:0.5;" width="246" x="39" y="206.58"/><ellipse cx="54" cy="226.4745" fill="#ADD1B2" rx="11" ry="11" style="stroke:#181818;stroke-width:1.0;"/><path d="M56.9688,232.1152 Q56.3906,232.412 55.75,232.5527 Q55.1094,232.7089 54.4063,232.7089 Q51.9063,232.7089 50.5781,231.0683 Q49.2656,229.412 49.2656,226.287 Q49.2656,223.162 50.5781,221.5058 Q51.9063,219.8495 54.4063,219.8495 Q55.1094,219.8495 55.75,220.0058 Q56.4063,220.162 56.9688,220.4589 L56.9688,223.1777 Q56.3438,222.5995 55.75,222.3339 Q55.1563,222.0527 54.5313,222.0527 Q53.1875,222.0527 52.5,223.1308 Q51.8125,224.1933 51.8125,226.287 Q51.8125,228.3808 52.5,229.4589 Q53.1875,230.5214 54.5313,230.5214 Q55.1563,230.5214 55.75,230.2558 Q56.3438,229.9745 56.9688,229.3964 L56.9688,232.1152 Z " fill="#000000"/><text fill="#D9B8FF" font-family="Helvetica" font-size="17" lengthAdjust="spacing" textLength="204" x="73" y="232.3598">azure_network_flow_log</text></g><!--class azure_network_virtual_network--><g id="elem_azure_network_virtual_network"><rect codeLine="26" fill="#3D176E" height="39.7891" id="azure_network_virtual_network" rx="2.5" ry="2.5" style="stroke:#000D19;stroke-width:0.5;" width="310" x="7" y="7"/><ellipse cx="22" cy="26.8945" fill="#ADD1B2" rx="11" ry="11" style="stroke:#181818;stroke-width:1.0;"/><path d="M24.9688,32.5352 Q24.3906,32.832 23.75,32.9727 Q23.1094,33.1289 22.4063,33.1289 Q19.9063,33.1289 18.5781,31.4883 Q17.2656,29.832 17.2656,26.707 Q17.2656,23.582 18.5781,21.9258 Q19.9063,20.2695 22.4063,20.2695 Q23.1094,20.2695 23.75,20.4258 Q24.4063,20.582 24.9688,20.8789 L24.9688,23.5977 Q24.3438,23.0195 23.75,22.7539 Q23.1563,22.4727 22.5313,22.4727 Q21.1875,22.4727 20.5,23.5508 Q19.8125,24.6133 19.8125,26.707 Q19.8125,28.8008 20.5,29.8789 Q21.1875,30.9414 22.5313,30.9414 Q23.1563,30.9414 23.75,30.6758 Q24.3438,30.3945 24.9688,29.8164 L24.9688,32.5352 Z " fill="#000000"/><text fill="#D9B8FF" font-family="Helvetica" font-size="17" lengthAdjust="spacing" textLength="268" x="41" y="32.7798">azure_network_virtual_network</text></g><!--class azure_network_watcher--><g id="elem_azure_network_watcher"><rect codeLine="29" fill="#3D176E" height="39.7891" id="azure_network_watcher" rx="2.5" ry="2.5" style="stroke:#000D19;stroke-width:0.5;" width="244" x="40" y="106.79"/><ellipse cx="55" cy="126.6845" fill="#ADD1B2" rx="11" ry="11" style="stroke:#181818;stroke-width:1.0;"/><path d="M57.9688,132.3252 Q57.3906,132.622 56.75,132.7627 Q56.1094,132.9189 55.4063,132.9189 Q52.9063,132.9189 51.5781,131.2783 Q50.2656,129.622 50.2656,126.497 Q50.2656,123.372 51.5781,121.7158 Q52.9063,120.0595 55.4063,120.0595 Q56.1094,120.0595 56.75,120.2158 Q57.4063,120.372 57.9688,120.6689 L57.9688,123.3877 Q57.3438,122.8095 56.75,122.5439 Q56.1563,122.2627 55.5313,122.2627 Q54.1875,122.2627 53.5,123.3408 Q52.8125,124.4033 52.8125,126.497 Q52.8125,128.5908 53.5,129.6689 Q54.1875,130.7314 55.5313,130.7314 Q56.1563,130.7314 56.75,130.4658 Q57.3438,130.1845 57.9688,129.6064 L57.9688,132.3252 Z " fill="#000000"/><text fill="#D9B8FF" font-family="Helvetica" font-size="17" lengthAdjust="spacing" textLength="202" x="74" y="132.5698">azure_network_watcher</text></g><!--link azure_network_virtual_network to azure_network_watcher--><g id="link_azure_network_virtual_network_azure_network_watcher"><path codeLine="32" d="M162,47.22 C162,64.36 162,83.27 162,100.41 " fill="none" id="azure_network_virtual_network-to-azure_network_watcher" style="stroke:#1A83AF;stroke-width:2.0;"/><polygon fill="#1A83AF" points="162,106.41,166,97.41,162,101.41,158,97.41,162,106.41" style="stroke:#1A83AF;stroke-width:2.0;"/></g><!--link azure_network_watcher to azure_network_flow_log--><g id="link_azure_network_watcher_azure_network_flow_log"><path codeLine="33" d="M162,147.01 C162,164.15 162,183.06 162,200.2 " fill="none" id="azure_network_watcher-to-azure_network_flow_log" style="stroke:#1A83AF;stroke-width:2.0;"/><polygon fill="#1A83AF" points="162,206.2,166,197.2,162,201.2,158,197.2,162,206.2" style="stroke:#1A83AF;stroke-width:2.0;"/></g><!--SRC=[XP1FQy904CNl-HGBdWLJQTLB8HMalKYflPKYOtRMBDdiokp4eANVlVwfPPl4UDnvlttptcHQei1YmpjHOB52yf7FjTq0GI4I8bTDdN4aUag16exguinPlWdCeK3nZ6QBh5Ee4- -PJdEBtekxG7g2D5-JAwqyspE1zGS9BGVKr83t2JFfLSaOX96JrLYfEbatxGrbF7h01kP88lqYWy50nfCwSdDLP-y_Og7tAEBmQ7F7s8ZPM76YEbCUYI1ae-X5lvhn5QJKTYtkWzdREHDPf7_pHGRILKTQWV7X6iz8w7YtmMcZ5Kx6KerQuPThS9GUJoTWNn8kBNBbA5yguwgbSMln5KNVhSHM4vTWBk_hO0MSPeTs9w3Re__HYvFnC9bzzX_RNQ9sxuwFboRH3m00]--></g></svg>

<svg xmlns="http://www.w3.org/2000/svg" width="324" height="252" viewBox="0 0 324 252"><rect width="246" height="39.789" x="39" y="206.58" fill="#3D176E" rx="2.5" ry="2.5" style="stroke:#000d19;stroke-width:.5"/><circle cx="54" cy="226.475" r="11" fill="#ADD1B2" style="stroke:#181818;stroke-width:1"/><path d="M56.969 232.115q-.578.297-1.219.438-.64.156-1.344.156-2.5 0-3.828-1.64-1.312-1.657-1.312-4.782t1.312-4.781q1.328-1.656 3.828-1.656.703 0 1.344.156.656.156 1.219.453v2.719q-.625-.578-1.219-.844-.594-.281-1.219-.281-1.343 0-2.031 1.078-.687 1.062-.687 3.156t.687 3.172q.688 1.062 2.031 1.062.625 0 1.219-.265.594-.281 1.219-.86z"/><text x="73" y="232.36" fill="#D9B8FF" font-family="Helvetica" font-size="17" textLength="204">azure_network_flow_log</text><rect width="310" height="39.789" x="7" y="7" fill="#3D176E" rx="2.5" ry="2.5" style="stroke:#000d19;stroke-width:.5"/><circle cx="22" cy="26.895" r="11" fill="#ADD1B2" style="stroke:#181818;stroke-width:1"/><path d="M24.969 32.535q-.578.297-1.219.438-.64.156-1.344.156-2.5 0-3.828-1.64-1.312-1.657-1.312-4.782t1.312-4.781q1.328-1.656 3.828-1.656.703 0 1.344.156.656.156 1.219.453v2.719q-.625-.578-1.219-.844-.594-.281-1.219-.281-1.343 0-2.031 1.078-.687 1.062-.687 3.156t.687 3.172q.688 1.062 2.031 1.062.625 0 1.219-.265.594-.281 1.219-.86z"/><text x="41" y="32.78" fill="#D9B8FF" font-family="Helvetica" font-size="17" textLength="268">azure_network_virtual_network</text><rect width="244" height="39.789" x="40" y="106.79" fill="#3D176E" rx="2.5" ry="2.5" style="stroke:#000d19;stroke-width:.5"/><circle cx="55" cy="126.684" r="11" fill="#ADD1B2" style="stroke:#181818;stroke-width:1"/><path d="M57.969 132.325q-.578.297-1.219.438-.64.156-1.344.156-2.5 0-3.828-1.64-1.312-1.657-1.312-4.782t1.312-4.781q1.328-1.656 3.828-1.656.703 0 1.344.156.656.156 1.219.453v2.719q-.625-.579-1.219-.844-.594-.281-1.219-.281-1.343 0-2.031 1.078-.687 1.062-.687 3.156t.687 3.172q.688 1.062 2.031 1.062.625 0 1.219-.265.594-.281 1.219-.86z"/><text x="74" y="132.57" fill="#D9B8FF" font-family="Helvetica" font-size="17" textLength="202">azure_network_watcher</text><path fill="none" d="M162 47.22v53.19" style="stroke:#1a83af;stroke-width:2"/><path fill="#1A83AF" d="m162 106.41 4-9-4 4-4-4z" style="stroke:#1a83af;stroke-width:2"/><path fill="none" d="M162 147.01v53.19" style="stroke:#1a83af;stroke-width:2"/><path fill="#1A83AF" d="m162 206.2 4-9-4 4-4-4z" style="stroke:#1a83af;stroke-width:2"/></svg>
